X:2103
T:Drömde mik en dröm i nat
T:(tolkning Angul Hammerich, 1921)
R:Visa
O:Lund, Skåne
Z:Åke Persson, 2011-09-27
M:4/4
L:1/4
K:C
(F | F) A G A | F E D F | A A/A/ A F | D2 z2 |
w:Drö|öm-de mik en|dröm i nat um|sil-ki ok är-lik|päl
F A G A | A E A2 | E F/D/ F A | E2 z2 ||
"Omkväde" F A G A | F2 G E | D2 |]
(:musicend:)
Här "tvåtakt"-varianten.

----

(:music:)
